!!!COM: John Williams
!!!OTL: Luke and Leia Basic
!!!GAW: Star Wars: Episode VI: Return of the Jedi
!!!ODT: 1983
!!!OCL: Frank Lehman
!!!ENC: Claire Arthur
!!!ENC2: John McNamara
**kern	**harte	**harm	**pedal	**cadence
*clefG2	*	*	*	*
*k[b-e-a-d-g-]	*k[b-e-a-d-g-]	*k[b-e-a-d-g-]	*	*
*D-:	*D-:	*D-:	*	*
*M4/4	*M4/4	*M4/4	*	*
*MM78	*MM78	*MM78	*	*
4A-	.	.	.	.
4d-	.	.	.	.
4a-	.	.	.	.
=1	=1	=1	=1	=1
2g-	Cb:7(A11)	-VII7	Pedal: Db	.
[2f	.	.	.	.
=2	=2	=2	=2	=2
8f]	Db	I	.	.
8r	.	.	.	.
4A-	.	.	.	.
4d-	.	.	.	.
4a-	.	.	.	.
=3	=3	=3	=3	=3
4g-	Cb:7(A11)	-VII7	.	.
4f	.	.	.	.
4.e-	.	.	.	.
8d-	.	.	.	.
=4	=4	=4	=4	=4
4f	Db	I	.	.
4A-	.	.	.	.
4d-	.	.	.	.
4f	.	.	.	.
=5	=5	=5	=5	=5
2en	D	-II	.	.
[2dn	.	.	.	.
=6	=6	=6	=6	=6
8dn]	D	.	.	.
8r	.	.	.	.
4An	.	.	.	.
4en	.	.	.	.
4A	.	.	.	.
=7	=7	=7	=7	=7
4dn	D	.	.	.
4An	.	.	.	.
4.en	.	.	.	.
8A	.	.	.	.
=8	=8	=8	=8	=8
4dn	Ab:7(D5)	V7	Pedal: None	HC
4A-	.	.	.	.
4c	.	.	.	.
4a-	.	.	.	//
=9	=9	=9	=9	=9
2g-	Cb:7(A11)	-VII7	Pedal: Db	.
[2f	.	.	.	.
=10	=10	=10	=10	=10
8f]	Db	I	.	.
8r	.	.	.	.
4A-	.	.	.	.
4d-	.	.	.	.
4a-	.	.	.	.
=11	=11	=11	=11	=11
4g-	Cb:7(A11)	-VII7	.	.
4f	.	.	.	.
4.e-	.	.	.	.
8d-	.	.	.	.
=12	=12	=12	=12	=12
4f	Db	I	.	.
4d-	.	.	.	.
4a-	.	.	.	.
4dd-	.	.	.	.
=13	=13	=13	=13	=13
2bn	G:min(9)	iiom7b	Pedal: None	.
[2an	.	.	.	.
=14	=14	=14	=14	=14
8a]	Gb:min7	iv7	.	.
8r	.	.	.	.
4c#	.	.	.	.
4f#	.	.	.	.
4an	Gb:minmaj7	.	.	.
=15	=15	=15	=15	=15
4an	Fb:sus4(2)/5	-III	.	.
4g#	.	.	.	.
[4f#	Fb	.	.	.
16f#KL]	.	.	.	.
16r	.	.	.	.
8enJ	.	.	.	.
=16	=16	=16	=16	=16
4f#	D	-II	.	.
4en	.	.	.	.
4dn	.	.	.	.
4An	.	.	.	.
=17	=17	=17	=17	=17
2dn	D/3	-IIb	.	.
2c#	.	.	.	.
=18	=18	=18	=18	=18
4cn	Ab:7	V7	.	HC
4A-	.	.	.	//
4d-	.	.	.	.
4a-	.	.	.	.
=19	=19	=19	=19	=19
2g-	Cb:7(A11)	-VII7	Pedal: Db	.
[2f	Db	I	.	.
=20	=20	=20	=20	=20
8f]	Db	.	.	.
8r	.	.	.	.
4A-	.	.	.	.
4d-	.	.	.	.
4a-	.	.	.	.
=21	=21	=21	=21	=21
4g-	Cb:7(A11)	-VII7	.	.
4f	.	.	.	.
4.e-	.	.	.	.
8d-	.	.	.	.
=22	=22	=22	=22	=22
4f	Db	I	.	.
4d-	.	.	.	.
4f	.	.	.	.
4dd-	.	.	.	.
=23	=23	=23	=23	=23
2cc-	Gb	IV	Pedal: None	.
[2b-	.	.	.	.
=24	=24	=24	=24	=24
8b-]	Gb	.	.	.
8r	.	.	.	.
4d-	.	.	.	.
4g-	.	.	.	.
4dd-	.	.	.	.
=25	=25	=25	=25	=25
4ccn	Bb:min(9)	vi	.	.
4b-	.	.	.	.
4.an	.	.	.	.
8b-	.	.	.	.
=26	=26	=26	=26	=26
8cc	F/3	Vb/vi	.	.
8r	.	.	.	.
4f	.	.	.	.
4an	F:7	V7/vi	.	.
4cc	.	.	.	.
=27	=27	=27	=27	=27
2ee-	F:7/4	vi	.	.
2dd-	Bb:min	.	.	.
=28	=28	=28	=28	=28
4ccn	A	-VI	.	.
4an	.	.	.	.
4en	.	.	.	.
4c#	.	.	.	.
=29	=29	=29	=29	=29
2ee-	Db/5	Ic	.	.
2dd-	.	.	.	.
=30	=30	=30	=30	=30
4cc	A7/7	-VI7d	.	.
4an	.	.	.	.
6en	.	V7d/-II	.	.
6e-	.	.	.	.
6d-	.	.	.	.
=31	=31	=31	=31	=31
2bn	D/3	-IIb	.	.
[4an	.	.	.	.
4a]	F#:min	.	.	.
=32	=32	=32	=32	=32
4an	Ab:7(m9)	V7	.	.
4a-	.	.	.	.
6g-	.	.	.	.
6c	.	.	.	.
6An	.	.	.	.
=33	=33	=33	=33	=33
[1e-	C:dim7/6	iv7	Pedal: Db	.
=34	=34	=34	=34	=34
2..e-]	.	.	.	.
8r	.	.	.	.
=35	=35	=35	=35	=35
1d-	Db	I	.	]]
=	=	=	=	=
*-	*-	*-	*-	*-
